!!!OTL@@DE: Kriegslied
!!!COM: Zumsteeg, J.R.
!!!OMD: Mit Kraft
!!!LYR: Martin Optiz. (1597-1639)
!!!OCL: Erk, Ludwig
!!!GCO: Deutscher Liederschatz, Band 2
**kern	**kern	**kern
*staff3	*staff2	*staff1
*>[P,A,A,B]	*>[P,A,A,B]	*>[P,A,A,B]
*>norep[P,A,B]	*>norep[P,A,B]	*>norep[P,A,B]
*>P	*>P	*>P
*Ipiano	*Ipiano	*Ivox
*clefF4	*clefG2	*clefG2
*k[f#c#]	*k[f#c#]	*k[f#c#]
*met(C)	*met(C)	*met(C)
*M4/4	*M4/4	*M4/4
*MM110	*MM110	*MM110
16r	16ff#\LK	16r
4F#\	8.a\ 8.dd\ 8.aa\	4r
.	16dd\Jk	.
=1	=1	=1
*>A	*>A	*>A
*	*^	*
2E\	(4dd/	2g\	1r
.	8.cc#/L)	.	.
.	16ee/Jk	.	.
8.r	[2g/	8.r	.
16AA/L	.	16c#\LK	.
8.BB/	.	8.d\	.
16C#/Jk	.	16e\Jk	.
=2	=2	=2	=2
2D\	4g/]	2A\	1r
.	8.f#/L	.	.
.	16a/Jk	.	.
8.r	[2dd/	8.r	.
16D\LK	.	16f#\LK	.
8.E\	.	8.g\	.
16F#\Jk	.	16a\Jk	.
*	*v	*v	*
=3	=3	=3
2G\	8.b\ 8.dd\L]	1r
.	16gg\ 16bb\k	.
.	8.ff#\ 8.aa\	.
.	16ee\ 16gg\Jk	.
4A\	4dd\ 4ff#\	.
4AA\ 4A\	4g\ 4cc#\ 4ee\	.
=4	=4	=4
*	*	*clefG2
*	*	*k[f#c#]
4D\ 4d\	4f#/ 4dd/	2r
4DD/ 4D/	4f#/ 4a/ 4dd/	.
4DD/ 4D/	4f#/ 4a/ 4dd/	4r
4r	4r	8r
.	.	8a/
=5	=5	=5
*	*^	*
4DD\ 4D\	2d/	2F#/ 2A/	4.dd\
4CC#\ 4C#\	.	.	.
.	.	.	8d/
2BBB\ 2BB\	8.d/L	4F#/ 4B/	8.d/
.	16e/k	.	16e/
.	8.f#/	4B\ 4d\	8.f#/
.	16g#/Jk	.	16g#/
=6	=6	=6	=6
4AAA/ 4AA/	8.a/L	4c#\ 4e\	8.a/L
.	16g#/Jk	.	16g#/Jk
*	*v	*v	*
8A\L	4c#/ 4e/ 4a/	4a/
8Gn\J	.	.
8F#\L	8d/ 8a/ 8dd/L	8r
8A\	8a/	8a/
8F#\	8f#/	8f#/
8D\J	8d/J	8d/
=7	=7	=7
4G\	4d/ 4g/ 4b/	4.b\
4E\	4e/ 4g/ 4b/	.
.	.	8b\
4C#/	4A/ 4e/ 4a/	4.a/
4AA/	4A/ 4c#/ 4e/	.
.	.	8g/
=8	=8	=8
8.D/L	4A/ 4d/ 4f#/	2f#/
16DD/k	.	.
8.FF#/	2A/ 2d/ 2f#/	.
16AA/Jk	.	.
4D/	.	4r
4C#/	4A/ 4e/ 4a/	8r
.	.	8a/
=9	=9	=9
2BB/	4f#/ 4dd/	4.dd^\
.	4d/ 4f#/ 4b/	.
.	.	8b\
4E\	4B/ 4e/ 4g#/	8.g#/
.	.	16e/
4D\	4G#/ 4B/ 4e/	8.f#/
.	.	16g#/
=10	=10	=10
2C#/	2A/ 2e/	8.a/L
.	.	16g#/Jk
.	.	4a/
2F#\	2A/ 2c#/ 2a/	8r
.	.	8a/
.	.	8a/
.	.	8cc#\
=11	=11	=11
2D\	2f#/ 2a/ 2b/	4.b\
.	.	8b\
4E\	4e/ 4g#/ 4b/	4ee\
4EE/ 4E/	4d/ 4e/ 4g#/	4g#/
=12	=12	=12
8.AA\ 8.A\L	4c#/ 4e/ 4a/	2a/
16E\k	.	.
8.C#\	2c#/ 2e/ 2a/	.
16E\Jk	.	.
4AA/	.	8r
.	.	8a/
[4A\	4c#/ 4e/ 4a/	8a/
.	.	8a/
=13	=13	=13
*	*^	*
4A\]	2b/	(4d#\ 4f#\	4.b\
2G\	.	4e\) 4g\	.
.	.	.	8b\
.	2a/	(4c#\ 4e\	4.a/
[4F#\	.	4dn\) 4f#\	.
.	.	.	8a/
=14	=14	=14	=14
4F#\]	2g/	(4B\ 4d\	4g/
4E\	.	4c#\) 4e\	4g/
4C#/	4A/	4e/	8r
.	.	.	8e/
4AA/	8e/L	4A\ 4c#\	8e'/
.	8g/J	.	8g/
*	*v	*v	*
=15	=15	=15
4D\	4A/ 4d/ 4f#/	4.f#/
4F#\	4A/ 4d/	.
.	.	8a/
4E\	4A/ 4c#/	(4a/
4D\	4A/ 4d/	8g/)
.	.	8f#/
=16	=16	=16
4AA/	2A/ 2c#/ 2e/	2e/
4AA/	.	.
4A\	2c#/ 2e/ 2a/	8r
.	.	8a/
4G\	.	8b\
.	.	8cc#\
=17	=17	=17
8.F#\L	4d/ 4a/ 4dd/	4.dd\
16A\k	.	.
8.F#\	4f#/ 4a/ 4dd/	.
.	.	8dd\
16D\Jk	.	.
8.C#/L	4g\ 4a\ 4ee\	4.ee\
16E/k	.	.
8.C#/	4A/ 4e/ 4g/	.
.	.	8g/
16AA/Jk	.	.
=18	=18	=18
4.D\	4A/ 4e/ 4g/	4g/
.	4A/ 4d/ 4f#/	4f#/
(32D\LLL	.	.
32E\	.	.
32F#\	.	.
64G\L	.	.
64A\JJJJ	.	.
4B\)	4r	8r
.	.	8dd\
4A\	4d/ 4f#/ 4dd/	8dd\
.	.	8dd\
=19	=19	=19
2G\	4r	4.e/
.	4B/ 4d/ 4e/	.
.	.	8b\
2A\	4r	4.a/
.	4c#/ 4e/ 4a/	.
.	.	8g/
=20	=20	=20
8.D\ 8.A\L	8.d/ 8.f#/L	2f#/
16D\k	16d/k	.
8.F#\	8.f#/	.
16A\Jk	16a/Jk	.
8.d\L	8.dd\L	8.r
16d\k	16dd\k	16dd\
8.c#\	8.cc#\	8.cc#\
16d\Jk	16dd\Jk	16dd\
=21	=21	=21
4B\	4b\	4b\
4G\	4g/	4g/
4E\	4e/	4e/
4AA\ 4A\	4e/ 4g/ 4a/ 4cc#/	4a/
=22	=22	=22
8.DD/ 8.D/L	4f#/ 4a/ 4dd/	2d/
16DD/k	.	.
8.FF#/	4r	.
16AA/Jk	.	.
4D\	8.r	2r
.	16ff#\LK	.
4F#\	8.a\ 8.dd\ 8.aa\	.
.	16dd\Jk	.
=23	=23	=23
*>B	*>B	*>B
*	*^	*
2E\	(4dd/	2g\	1r
.	8.cc#/L)	.	.
.	16ee/Jk	.	.
8.r	[2g/	8.r	.
16AA/LK	.	16c#\LK	.
8.BB/	.	8.d\	.
16C#/Jk	.	16e\Jk	.
=24	=24	=24	=24
2D\	4g/]	2A\	1r
.	8.f#/L	.	.
.	16a/Jk	.	.
8.r	[2dd/	8.r	.
16D\LK	.	16f#\LK	.
8.E\	.	8.g\	.
16F#\Jk	.	16a\Jk	.
*	*v	*v	*
=25	=25	=25
2G\	8.b\ 8.dd\L]	1r
.	16gg\ 16bb\k	.
.	8.ff#\ 8.aa\	.
.	16ee\ 16gg\Jk	.
4A\	4dd\ 4ff#\	.
4AA\ 4A\	4g\ 4cc#\ 4ee\	.
=26	=26	=26
4D\ 4d\	4f#/ 4dd/	4r
4DD/ 4D/	4f#/ 4a/ 4dd/	4r
8.r	8.r	8.r
==	==	==
*-	*-	*-
!!!ENC: Craig Stuart Sapp
!!!END: 2004/05/19/
!!!EFL: 210/600
